gama.ui.shared/icons_svg/dark/editor/toggle.mark.svg

<svg height="25" viewBox="-346.483 -3263.748 25 25" width="25" xmlns="http://www.w3.org/2000/svg"><g fill="none"><path d="m-342.14272-3263.248h16.32c2.12077 0 3.84 1.719 3.84 3.84v16.32c0 2.1207-1.71923 3.84-3.84 3.84h-16.32c-2.12078 0-3.84-1.7193-3.84-3.84v-16.32c0-2.121 1.71922-3.84 3.84-3.84z" fill="#666"/><path d="m-342.14272-3263.248h16.32c2.12077 0 3.84 1.719 3.84 3.84v16.32c0 2.1207-1.71923 3.84-3.84 3.84h-16.32c-2.12078 0-3.84-1.7193-3.84-3.84v-16.32c0-2.121 1.71922-3.84 3.84-3.84z" stroke="#fff" stroke-linecap="round" stroke-linejoin="round" stroke-width=".25"/><path d="m-340.69636-3244.748c-.46994 0-.8392-.22-.8392-.5s.36926-.5.8392-.5h8.39206c.46994 0 .8392.22.8392.5s-.36926.5-.8392.5zm0-8c-.46994 0-.8392-.22-.8392-.5s.36926-.5.8392-.5h8.39206c.46994 0 .8392.22.8392.5s-.36926.5-.8392.5zm0-4c-.46994 0-.8392-.22-.8392-.5s.36926-.5.8392-.5h13.42726c.46996 0 .8392.22.8392.5s-.36924.5-.8392.5zm0 8c-.46994 0-.8392-.22-.8392-.5s.36926-.5.8392-.5h13.42726c.46996 0 .8392.22.8392.5s-.36924.5-.8392.5z" fill="#c0e0ff"/><path d="m-335.3724-3250.4015h6.140703v2.259912h-6.140703z" fill="#fff"/><path d="m-335.3724-3250.4015h6.140703v2.259912h-6.140703z" stroke="silver" stroke-linecap="round" stroke-linejoin="round"/><path d="m-339.3379-3258.4007h6.140703v2.259912h-6.140703z" fill="#fff"/><path d="m-339.3379-3258.4007h6.140703v2.259912h-6.140703z" stroke="silver" stroke-linecap="round" stroke-linejoin="round"/></g></svg>

<?xml version="1.0" encoding="UTF-8" standalone="no"?>
<!DOCTYPE svg PUBLIC "-//W3C//DTD SVG 1.1//EN" "http://www.w3.org/Graphics/SVG/1.1/DTD/svg11.dtd">
<svg xmlns="http://www.w3.org/2000/svg" xmlns:xl="http://www.w3.org/1999/xlink" version="1.1" xmlns:dc="http://purl.org/dc/elements/1.1/" viewBox="-346.48272 -3263.748 25 25" width="25" height="25">
  <defs/>
  <g id="SOURCES" stroke-opacity="1" fill="none" stroke="none" fill-opacity="1" stroke-dasharray="none">
    <title>SOURCES</title>
    <g id="SOURCES_Dark">
      <title>Dark</title>
      <g id="Graphic_11417">
        <path d="M -342.14272 -3263.248 L -325.82272 -3263.248 C -323.70195 -3263.248 -321.98272 -3261.529 -321.98272 -3259.408 L -321.98272 -3243.088 C -321.98272 -3240.9673 -323.70195 -3239.248 -325.82272 -3239.248 L -342.14272 -3239.248 C -344.2635 -3239.248 -345.98272 -3240.9673 -345.98272 -3243.088 L -345.98272 -3259.408 C -345.98272 -3261.529 -344.2635 -3263.248 -342.14272 -3263.248 Z" fill="#666"/>
        <path d="M -342.14272 -3263.248 L -325.82272 -3263.248 C -323.70195 -3263.248 -321.98272 -3261.529 -321.98272 -3259.408 L -321.98272 -3243.088 C -321.98272 -3240.9673 -323.70195 -3239.248 -325.82272 -3239.248 L -342.14272 -3239.248 C -344.2635 -3239.248 -345.98272 -3240.9673 -345.98272 -3243.088 L -345.98272 -3259.408 C -345.98272 -3261.529 -344.2635 -3263.248 -342.14272 -3263.248 Z" stroke="white" stroke-linecap="round" stroke-linejoin="round" stroke-width=".25"/>
      </g>
      <g id="Graphic_11416">
        <path d="M -340.69636 -3244.748 C -341.1663 -3244.748 -341.53556 -3244.968 -341.53556 -3245.248 C -341.53556 -3245.528 -341.1663 -3245.748 -340.69636 -3245.748 L -332.3043 -3245.748 C -331.83436 -3245.748 -331.4651 -3245.528 -331.4651 -3245.248 C -331.4651 -3244.968 -331.83436 -3244.748 -332.3043 -3244.748 Z M -340.69636 -3252.748 C -341.1663 -3252.748 -341.53556 -3252.968 -341.53556 -3253.248 C -341.53556 -3253.528 -341.1663 -3253.748 -340.69636 -3253.748 L -332.3043 -3253.748 C -331.83436 -3253.748 -331.4651 -3253.528 -331.4651 -3253.248 C -331.4651 -3252.968 -331.83436 -3252.748 -332.3043 -3252.748 Z M -340.69636 -3256.748 C -341.1663 -3256.748 -341.53556 -3256.968 -341.53556 -3257.248 C -341.53556 -3257.528 -341.1663 -3257.748 -340.69636 -3257.748 L -327.2691 -3257.748 C -326.79914 -3257.748 -326.4299 -3257.528 -326.4299 -3257.248 C -326.4299 -3256.968 -326.79914 -3256.748 -327.2691 -3256.748 Z M -340.69636 -3248.748 C -341.1663 -3248.748 -341.53556 -3248.968 -341.53556 -3249.248 C -341.53556 -3249.528 -341.1663 -3249.748 -340.69636 -3249.748 L -327.2691 -3249.748 C -326.79914 -3249.748 -326.4299 -3249.528 -326.4299 -3249.248 C -326.4299 -3248.968 -326.79914 -3248.748 -327.2691 -3248.748 Z" fill="#c0e0ff"/>
      </g>
      <g id="Graphic_11415">
        <rect x="-335.3724" y="-3250.4015" width="6.1407026" height="2.2599124" fill="white"/>
        <rect x="-335.3724" y="-3250.4015" width="6.1407026" height="2.2599124" stroke="silver" stroke-linecap="round" stroke-linejoin="round" stroke-width="1"/>
      </g>
      <g id="Graphic_11414">
        <rect x="-339.3379" y="-3258.4007" width="6.1407026" height="2.2599124" fill="white"/>
        <rect x="-339.3379" y="-3258.4007" width="6.1407026" height="2.2599124" stroke="silver" stroke-linecap="round" stroke-linejoin="round" stroke-width="1"/>
      </g>
    </g>
  </g>
</svg>
